X:1
T:Nun lässt im fried herfahren
T:Conrad Hagius
T:Source : Lobgesänge---Ursell---C.Sutorius---1606. Editor : André Vierendeels (25/05/17).
T:Notes : Original clefs : G2, C2 C3, F3 Editorial accidentals above the staff Original note values have been halved Text Middle German (Nunc dimittis) (Lucae 2)
T:Nun lässt im fried herfahren
T:©
T:©
C:Conrad Hagius
Z:©
%%score [ 1 2 3 4 ]
L:1/8
Q:1/4=120
M:2/2
K:F
V:1 treble nm="Soprano" snm="S"
V:2 treble nm="Alto" snm="A"
V:3 treble-8 nm="Tenor" snm="T"
V:4 bass nm="Bass" snm="B"
V:1
"^1)" d4 G2 A2 | B2 A2 G4 | F2 B2 G2 A2 | B2 c2 d4 | z4 d4 | ^c2 d2 e2 f2 | e4 d2 g2 | %7
w: Nun lässt im|fried her- fah-|ren, dein die- ner|wol- ge- mut,|in|sei- nen al- ten|ja- ren, nach|
w: Den du in|die- sen ta-|gen hast gne- dig-|lich be- reit,|für|al- ler Völ- cker|au- gen, auff|
 f2 d2 f2 e2 | d4 z4 | d4 f2 d2 | c2 B2 A4 | G2 c2 B2 A2 | G2 G2 ^F4 | z4 B4 | B2 c2 d2 _e2 | %15
w: dei- ner zu- sag|gut,|den ich auff|mein ver- traw-|en, mit die- sen|au- gen mein,|hab|frö- lich thun an-|
w: Er- den weit und|breit,|ein liecht das|leucht zum le-|ben, der hei- den-|schafft on fehl,|da-|von man preisz wirt|
 c4 B2 d2 | c2 B2 c4 | A4 !fermata!G4 |] %18
w: schaw- en, den|lie- ben Hei-|land dein.|
w: ge- ben, dei-|nem volck Is-|ra- el.|
V:2
"^2)""^1)" G4 G2 F2 | D2 F2 _E4 | D2 D2 D2 D2 | G2 G2 ^F4 | z4 A4 | A2 F2 A2 A2 | A4 A2 c2 | %7
w: Nun lässt im|fried her- fah-|ren, dein die- ner|wol- ge- mut,|in|sei- nen al- ten|ja- ren, nach|
 A2 G2 A2 A2 | ^F4 z4 | D4 A2 F2 | F2 D2 D4 | B,2 _E2 E2 C2 | _E2 E2 D4 | z4 F4 | G2 A2 F2 G2 | %15
w: dei- ner zu- sag|gut,|den ich auff|mein ver- traw-|en, mit die- sen|au- gen mein,|hab|frö- lich thun an-|
 F4 D4 | z2 D2 F2 E2 | D2 D2 !fermata!D4 |] %18
w: schaw- en,|den li- ben|Hei- land dein.|
V:3
"^1)" d4 d2 d2 | B2 c2 c4 | A2 G2 B2 A2 | G2 G2 A4 |"^-natural" z4 f4 | e2 d2 ^c2 dd- | %6
w: Nun lässt im|fried her- fah-|ren, dein die- ner|wol- ge- mut,|in|sei- nen al- ten ja-|
w: Den du in|die- sen ta-|gen, hast gne- dig-|lich be- reit,|für|al- ler Völ- cker au-|
 d^c/=B/ c2 d2 _e2 | c2 =B2 d2 ^c2 | d4 z4 | =B4 c2 dB- | BA G3 ^F/E/ F2 | G2 G2 G2 A2 | c2 c2 A4 | %13
w: * * * * ren, nach|dei- ner zu- sag|gut,|den ich auff mein|_ ver- traw- * * *|en, mit die- sem|au- gen mein,|
w: * * * * gen, auff|Er- den weit und|breit,|ein liecht das leucht|_ zum le- * * *|ben, der hei- den-|schafft on fehl|
 z4 d4 | d2 f2 d2 cB- | BA/G/ A2 B2 B2 | A2 G2 A2 G2- | G^F/E/ F2 !fermata!G4 |] %18
w: hab|frö- lich thun an- schaw-|* * * * en, den|lie- ben Hei- *|* * * land dein.|
w: da-|von man preisz wirt ge-|* * * * ben, dei-|nem volck Is- ra-|* * * * el.|
V:4
"^2)""^1)" G,4 G,2 D,2 | G,2 F,2 C,4 | D,2 G,2 G,2 F,2 | _E,2 E,2 D,4 | z4 D,4 | A,2 B,2 A,2 D,2 | %6
w: Nun lässt im|fried her- fah-|ren, dein die- ner|wol- ge- mut,|in|sei- nen al- ten|
 A,4 D,2 C,2 | F,2 G,2 D,2 A,2 | D,4 z4 | G,4 F,2 B,,2 | F,2 G,2 D,4 | G,2 C,2 _E,2 F,2 | %12
w: ja- ren, nach|dei- ner zu- sag|gut,|den ich auff|mein ver- traw-|en, mit die- sem|
 C,2 C,2 D,4 | z4 B,4 | G,2 F,2 B,2 _E,2 | F,4 B,,4 | z2 G,2 F,2 C,2 | D,2 D,2 !fermata!G,,4 |] %18
w: au- gen mein,|hab|frö- lich thun an-|schaw- en,|den lie- ben|Hei- land dein.|

